Dominus_Funeral/22/mimes/text-xml.svg

<svg xmlns="http://www.w3.org/2000/svg" viewBox="0 0 24 24"><defs><linearGradient id="a"><stop offset="0"/><stop offset="1" stop-opacity="0"/></linearGradient></defs><path d="M14.113.703L8.481 22.921l1.406.376 5.632-22.261zM17.3 4.93l-1.073.998L21.398 12l-5.192 6.04 1.072.998 5.6-6.555.408-.483-.375-.515zm-10.6 0l1.073.998L2.602 12l5.192 6.04-1.072.998-5.6-6.555L.713 12l.375-.515z" color="#000" fill="#1a1a1a"/></svg>

<?xml version="1.0" encoding="UTF-8" standalone="no"?>
<svg
   xmlns:dc="http://purl.org/dc/elements/1.1/"
   xmlns:cc="http://creativecommons.org/ns#"
   xmlns:rdf="http://www.w3.org/1999/02/22-rdf-syntax-ns#"
   xmlns:svg="http://www.w3.org/2000/svg"
   xmlns="http://www.w3.org/2000/svg"
   xmlns:sodipodi="http://sodipodi.sourceforge.net/DTD/sodipodi-0.dtd"
   xmlns:inkscape="http://www.inkscape.org/namespaces/inkscape"
   viewBox="0 0 24 24"
   version="1.1"
   id="svg11"
   sodipodi:docname="text-xml.svg"
   inkscape:version="0.92.4 (5da689c313, 2019-01-14)">
  <metadata
     id="metadata15">
    <rdf:RDF>
      <cc:Work
         rdf:about="">
        <dc:format>image/svg+xml</dc:format>
        <dc:type
           rdf:resource="http://purl.org/dc/dcmitype/StillImage" />
        <dc:title></dc:title>
      </cc:Work>
    </rdf:RDF>
  </metadata>
  <sodipodi:namedview
     pagecolor="#ffffff"
     bordercolor="#666666"
     borderopacity="1"
     objecttolerance="10"
     gridtolerance="10"
     guidetolerance="10"
     inkscape:pageopacity="0"
     inkscape:pageshadow="2"
     inkscape:window-width="1112"
     inkscape:window-height="480"
     id="namedview13"
     showgrid="false"
     inkscape:zoom="9.8333333"
     inkscape:cx="1.0677966"
     inkscape:cy="12"
     inkscape:window-x="0"
     inkscape:window-y="25"
     inkscape:window-maximized="0"
     inkscape:current-layer="svg11" />
  <defs
     id="defs7">
    <linearGradient
       id="a">
      <stop
         offset="0"
         id="stop2" />
      <stop
         offset="1"
         stop-opacity="0"
         id="stop4" />
    </linearGradient>
  </defs>
  <path
     d="M 14.113,0.703 8.481,22.921 9.887,23.297 15.519,1.036 Z M 17.3,4.93 16.227,5.928 21.398,12 l -5.192,6.04 1.072,0.998 5.6,-6.555 L 23.286,12 22.911,11.485 Z M 6.7,4.93 7.773,5.928 2.602,12 7.794,18.04 6.722,19.038 1.122,12.483 0.713,12 1.088,11.485 Z"
     id="path9"
     inkscape:connector-curvature="0"
     style="color:#000000;fill:#1a1a1a" />
</svg>
